;FLAVOR:Marlin
;TIME:53797
;Filament used: 39.1611m
;Layer height: 0.2
;MINX:5.844
;MINY:9.443
;MINZ:0.24
;MAXX:224.2
;MAXY:225.252
;MAXZ:57.09
;Generated with Creality Slicer 4.8.2-218
M140 S60
M105
M190 S60
M104 S205
M105
M109 S205
M82 ;absolute extrusion mode

G28 ;Home

G92 E0 ;Reset Extruder
G1 Z2.0 F3000 ;Move Z Axis up
G1 X10.1 Y20 Z0.28 F5000.0 ;Move to start position
G1 X10.1 Y200.0 Z0.28 F1500.0 E15 ;Draw the first line
G1 X10.4 Y200.0 Z0.28 F5000.0 ;Move to side a little
G1 X10.4 Y20 Z0.28 F1500.0 E30 ;Draw the second line
G92 E0 ;Reset Extruder
G1 Z2.0 F3000 ;Move Z Axis up

G92 E0
G92 E0
G1 F2700 E-5
;LAYER_COUNT:280
;LAYER:-6
M107
G0 F7200 X13.721 Y18.824 Z0.24
;TYPE:SUPPORT-INTERFACE
G1 F2700 E0
G1 F1012.5 X14.436 Y18.332 E0.06928
G1 X14.62 Y18.215 E0.08669
G1 X15.376 Y17.772 E0.15663
G1 X15.518 Y17.695 E0.16953
G1 X16.35 Y17.286 E0.24353
G1 X16.463 Y17.236 E0.25339
G1 X17.318 Y16.891 E0.32699
G1 X17.485 Y16.831 E0.34116
G1 X18.324 Y16.562 E0.41149
G1 X18.488 Y16.516 E0.42508
G1 X19.36 Y16.304 E0.49672
G1 X19.522 Y16.271 E0.50991
G1 X20.415 Y16.123 E0.58217
G1 X20.592 Y16.1 E0.59642
G1 X21.486 Y16.017 E0.66809
G1 X21.628 Y16.01 E0.67944
G1 X22.369 Y15.989 E0.73861
G1 X64.298 Y15.989 E4.08556
G1 X64.961 Y15.947 E4.13859
G1 X65.329 Y15.887 E4.16836
G1 X87.967 Y11.398 E6.0106
G1 X88.94 Y11.242 E6.08927
G1 X89.072 Y11.225 E6.09989
G1 X89.852 Y11.152 E6.16242
G1 X98.806 Y10.54 E6.87884
G1 X99.746 Y10.506 E6.95392
G1 X100.608 Y10.503 E7.02273
G1 X101.564 Y10.534 E7.09908
G1 X101.713 Y10.542 E7.111
G1 X102.401 Y10.608 E7.16617
G1 X103.261 Y10.712 E7.23532
G1 X104.255 Y10.869 E7.31564
G1 X104.429 Y10.903 E7.3298
G1 X105.173 Y11.071 E7.39068
G1 X105.943 Y11.268 E7.45413
G1 X106.038 Y11.294 E7.46199
G1 X106.934 Y11.556 E7.53651
G1 X107.094 Y11.609 E7.54996
G1 X107.675 Y11.82 E7.5993
G1 X108.493 Y12.139 E7.66939
G1 X109.478 Y12.567 E7.75512
G1 X109.58 Y12.615 E7.76411
G1 X110.259 Y12.964 E7.82506
G1 X110.996 Y13.368 E7.89215
G1 X111.866 Y13.885 E7.97293
G1 X111.941 Y13.933 E7.98004
G1 X112.569 Y14.365 E8.04088
G1 X112.816 Y14.543 E8.06519
G1 X113.383 Y14.902 E8.11876
G1 X114 Y15.19 E8.17311
G1 X114.651 Y15.4 E8.22771
G1 X115.322 Y15.524 E8.28218
G1 X115.962 Y15.563 E8.33336
G1 X155.443 Y15.563 E11.48491
G1 X156.111 Y15.521 E11.53833
G1 X156.783 Y15.392 E11.59296
G1 X157.437 Y15.176 E11.64793
G1 X157.598 Y15.111 E11.66179
G1 X157.765 Y15.051 E11.67596
G1 X158.616 Y14.778 E11.7473
G1 X158.78 Y14.732 E11.7609
G1 X159.652 Y14.52 E11.83253
G1 X159.814 Y14.487 E11.84573
G1 X160.707 Y14.339 E11.91798
G1 X160.884 Y14.316 E11.93223
G1 X161.778 Y14.233 E12.0039
G1 X161.92 Y14.226 E12.01525
G1 X162.661 Y14.205 E12.07442
G1 X208.422 Y14.206 E15.72726
G1 X209.423 Y14.242 E15.80722
G1 X209.546 Y14.251 E15.81706
G1 X210.463 Y14.353 E15.89071
G1 X210.638 Y14.378 E15.90483
G1 X211.527 Y14.542 E15.97699
G1 X211.65 Y14.57 E15.98706
G1 X212.544 Y14.804 E16.06082
G1 X212.707 Y14.853 E16.07441
G1 X213.549 Y15.139 E16.14539
G1 X213.715 Y15.203 E16.15959
G1 X214.518 Y15.544 E16.22923
G1 X214.707 Y15.632 E16.24588
G1 X215.501 Y16.04 E16.31713
G1 X215.618 Y16.107 E16.3279
G1 X216.397 Y16.581 E16.40069
G1 X216.548 Y16.681 E16.41514
G1 X217.262 Y17.192 E16.48523
G1 X217.41 Y17.305 E16.50009
G1 X218.102 Y17.882 E16.57202
G1 X218.21 Y17.978 E16.58355
G1 X218.722 Y18.46 E16.63968
G1 X218.878 Y18.617 E16.65735
G1 X219.524 Y19.313 E16.73315
G1 X219.643 Y19.452 E16.74776
G1 X220.197 Y20.143 E16.81845
G1 X220.301 Y20.282 E16.83231
G1 X220.793 Y20.997 E16.90159
G1 X220.91 Y21.181 E16.919
G1 X221.353 Y21.937 E16.98894
G1 X221.43 Y22.079 E17.00184
G1 X221.833 Y22.898 E17.0747
G1 X221.889 Y23.024 E17.08571
G1 X222.231 Y23.869 E17.15847
G1 X222.29 Y24.034 E17.17246
G1 X222.562 Y24.881 E17.24347
G1 X222.608 Y25.043 E17.25691
G1 X222.82 Y25.917 E17.3287
G1 X222.853 Y26.075 E17.34159
G1 X223.001 Y26.967 E17.41377
G1 X223.025 Y27.153 E17.42874
G1 X223.107 Y28.037 E17.4996
G1 X223.115 Y28.189 E17.51175
G1 X223.136 Y28.922 E17.57029
G1 X223.136 Y57.674 E19.8654
G1 X223.1 Y58.68 E19.94575
G1 X223.09 Y58.815 E19.95656
G1 X222.988 Y59.732 E20.03021
G1 X222.963 Y59.907 E20.04432
G1 X222.801 Y60.785 E20.11559
G1 X222.771 Y60.919 E20.12655
G1 X222.54 Y61.804 E20.19956
G1 X222.488 Y61.976 E20.2139
G1 X222.202 Y62.818 E20.28489
G1 X222.138 Y62.984 E20.29909
G1 X221.797 Y63.787 E20.36873
G1 X221.716 Y63.962 E20.38412
G1 X221.301 Y64.77 E20.45663
G1 X221.234 Y64.887 E20.46739
G1 X220.76 Y65.666 E20.54018
G1 X220.66 Y65.817 E20.55464
G1 X220.149 Y66.531 E20.62473
G1 X220.036 Y66.679 E20.63959
G1 X219.459 Y67.371 E20.71151
G1 X219.363 Y67.479 E20.72305
G1 X218.881 Y67.991 E20.77918
G1 X218.724 Y68.147 E20.79684
G1 X218.028 Y68.793 E20.87265
G1 X217.889 Y68.912 E20.88725
G1 X217.198 Y69.466 E20.95795
G1 X217.059 Y69.57 E20.97181
G1 X216.345 Y70.062 E21.04102
G1 X216.176 Y70.169 E21.05699
G1 X216.11 Y70.208 E21.06311
G1 X215.555 Y70.581 E21.11649
G1 X215.041 Y71.032 E21.17107
G1 X214.589 Y71.543 E21.22553
G1 X214.204 Y72.106 E21.27997
G1 X213.893 Y72.715 E21.33456
G1 X213.662 Y73.358 E21.3891
G1 X213.513 Y74.027 E21.44381
G1 X213.449 Y74.846 E21.50938
G1 X213.449 Y206.837 E32.04548
G1 X213.413 Y207.843 E32.12583
G1 X213.403 Y207.978 E32.13664
G1 X213.301 Y208.895 E32.21029
G1 X213.276 Y209.07 E32.2244
G1 X213.116 Y209.938 E32.29485
G1 X213.084 Y210.081 E32.30655
G1 X212.85 Y210.976 E32.38039
G1 X212.801 Y211.139 E32.39398
G1 X212.515 Y211.981 E32.46496
G1 X212.451 Y212.147 E32.47917
G1 X212.11 Y212.95 E32.5488
G1 X212.029 Y213.125 E32.5642
G1 X211.614 Y213.933 E32.63671
G1 X211.547 Y214.05 E32.64747
G1 X211.073 Y214.829 E32.72026
G1 X210.973 Y214.98 E32.73472
G1 X210.462 Y215.694 E32.8048
G1 X210.349 Y215.842 E32.81967
G1 X209.772 Y216.534 E32.89159
G1 X209.676 Y216.642 E32.90312
G1 X209.194 Y217.154 E32.95925
G1 X209.037 Y217.31 E32.97692
G1 X208.341 Y217.956 E33.05272
G1 X208.202 Y218.075 E33.06733
G1 X207.511 Y218.629 E33.13803
G1 X207.372 Y218.733 E33.15188
G1 X206.657 Y219.225 E33.22116
G1 X206.473 Y219.342 E33.23857
G1 X205.717 Y219.785 E33.30851
G1 X205.575 Y219.862 E33.32141
G1 X204.747 Y220.269 E33.39506
G1 X204.63 Y220.321 E33.40528
G1 X203.775 Y220.666 E33.47887
G1 X203.612 Y220.724 E33.49268
G1 X202.769 Y220.995 E33.56337
G1 X202.605 Y221.041 E33.57696
G1 X201.733 Y221.253 E33.6486
G1 X201.571 Y221.286 E33.6618
G1 X200.678 Y221.434 E33.73405
G1 X200.501 Y221.457 E33.7483
G1 X199.607 Y221.54 E33.81997
G1 X199.465 Y221.547 E33.83132
G1 X198.724 Y221.568 E33.89049
G1 X176.753 Y221.568 E35.64431
G1 X176.085 Y221.61 E35.69774
G1 X175.414 Y221.739 E35.75228
G1 X174.763 Y221.953 E35.80698
G1 X174.049 Y222.301 E35.87039
G1 X173.471 Y222.64 E35.92388
G1 X173.34 Y222.711 E35.93577
G1 X172.509 Y223.119 E36.00967
G1 X172.392 Y223.171 E36.01989
G1 X171.537 Y223.516 E36.09348
G1 X171.374 Y223.574 E36.10729
G1 X170.531 Y223.845 E36.17798
G1 X170.367 Y223.891 E36.19157
G1 X169.495 Y224.103 E36.26321
G1 X169.333 Y224.136 E36.27641
G1 X168.44 Y224.284 E36.34866
G1 X168.263 Y224.307 E36.36291
G1 X167.369 Y224.39 E36.43458
G1 X167.227 Y224.397 E36.44593
G1 X166.486 Y224.418 E36.5051
G1 X137.725 Y224.417 E38.80093
G1 X136.724 Y224.381 E38.88088
G1 X136.601 Y224.372 E38.89073
G1 X135.684 Y224.27 E38.96438
G1 X135.509 Y224.245 E38.97849
G1 X134.62 Y224.081 E39.05065
G1 X134.497 Y224.053 E39.06072
G1 X133.603 Y223.819 E39.13449
G1 X133.44 Y223.77 E39.14808
G1 X132.598 Y223.484 E39.21906
G1 X132.432 Y223.42 E39.23326
G1 X131.629 Y223.079 E39.3029
G1 X131.44 Y222.991 E39.31954
G1 X130.646 Y222.583 E39.3908
G1 X130.529 Y222.516 E39.40156
G1 X129.75 Y222.042 E39.47435
G1 X129.593 Y221.938 E39.48938
G1 X128.875 Y221.424 E39.55987
G1 X128.735 Y221.317 E39.57394
G1 X128.331 Y220.981 E39.61588
G1 X127.791 Y220.585 E39.66934
G1 X127.193 Y220.255 E39.72386
G1 X126.558 Y220.003 E39.77839
G1 X125.891 Y219.831 E39.83337
G1 X124.905 Y219.738 E39.91243
G1 X112.137 Y219.738 E40.93163
G1 X111.469 Y219.78 E40.98506
G1 X110.798 Y219.909 E41.0396
G1 X110.149 Y220.122 E41.09412
G1 X109.532 Y220.414 E41.14861
G1 X108.961 Y220.779 E41.20271
G1 X108.639 Y221.035 E41.23555
G1 X108.565 Y221.098 E41.2433
G1 X107.901 Y221.631 E41.31127
G1 X107.733 Y221.756 E41.32799
G1 X107.03 Y222.24 E41.39612
G1 X106.846 Y222.357 E41.41352
G1 X106.09 Y222.8 E41.48347
G1 X105.948 Y222.877 E41.49636
G1 X105.12 Y223.284 E41.57001
G1 X105.008 Y223.334 E41.5798
G1 X104.148 Y223.681 E41.65383
G1 X103.985 Y223.739 E41.66764
G1 X103.142 Y224.01 E41.73832
G1 X102.978 Y224.056 E41.75192
G1 X102.106 Y224.268 E41.82355
G1 X101.944 Y224.301 E41.83675
G1 X101.051 Y224.449 E41.909
G1 X100.874 Y224.472 E41.92325
G1 X99.98 Y224.555 E41.99492
G1 X99.838 Y224.562 E42.00627
G1 X99.097 Y224.583 E42.06544
G1 X70.336 Y224.582 E44.36127
G1 X69.335 Y224.546 E44.44123
G1 X69.212 Y224.537 E44.45107
G1 X68.295 Y224.435 E44.52472
G1 X68.12 Y224.41 E44.53883
G1 X67.231 Y224.246 E44.61099
G1 X67.108 Y224.218 E44.62106
G1 X66.214 Y223.984 E44.69483
G1 X66.051 Y223.935 E44.70842
G1 X65.217 Y223.651 E44.77874
G1 X65.045 Y223.585 E44.79345
G1 X64.729 Y223.452 E44.82082
G1 X64.097 Y223.23 E44.87429
G1 X63.43 Y223.088 E44.92872
G1 X62.75 Y223.029 E44.98321
G1 X62.067 Y223.058 E45.03778
G1 X61.399 Y223.172 E45.09187
G1 X61.001 Y223.281 E45.12481
G1 X60.782 Y223.351 E45.14316
G1 X60.647 Y223.389 E45.15436
G1 X59.769 Y223.602 E45.22648
G1 X59.607 Y223.635 E45.23967
G1 X58.714 Y223.783 E45.31193
G1 X58.537 Y223.806 E45.32618
G1 X57.643 Y223.889 E45.39785
G1 X57.501 Y223.896 E45.4092
G1 X56.76 Y223.917 E45.46837
G1 X27.999 Y223.916 E47.7642
G1 X26.998 Y223.88 E47.84415
G1 X26.875 Y223.871 E47.854
G1 X25.958 Y223.769 E47.92765
G1 X25.783 Y223.744 E47.94176
G1 X24.894 Y223.58 E48.01392
G1 X24.771 Y223.552 E48.02399
G1 X23.877 Y223.318 E48.09776
G1 X23.714 Y223.269 E48.11134
G1 X22.872 Y222.983 E48.18233
G1 X22.706 Y222.919 E48.19653
G1 X21.903 Y222.578 E48.26617
G1 X21.714 Y222.49 E48.28281
G1 X20.92 Y222.082 E48.35407
G1 X20.803 Y222.015 E48.36483
G1 X20.024 Y221.541 E48.43762
G1 X19.873 Y221.441 E48.45208
G1 X19.159 Y220.93 E48.52217
G1 X19.011 Y220.817 E48.53703
G1 X18.319 Y220.24 E48.60895
G1 X18.211 Y220.144 E48.62048
G1 X17.699 Y219.662 E48.67662
G1 X17.539 Y219.501 E48.69473
G1 X16.895 Y218.807 E48.77031
G1 X16.778 Y218.67 E48.78469
G1 X16.224 Y217.979 E48.85539
G1 X16.12 Y217.84 E48.86925
G1 X15.628 Y217.125 E48.93853
G1 X15.511 Y216.941 E48.95593
G1 X15.068 Y216.185 E49.02588
G1 X14.991 Y216.043 E49.03877
G1 X14.582 Y215.211 E49.11278
G1 X14.532 Y215.098 E49.12264
G1 X14.184 Y214.237 E49.19677
G1 X14.12 Y214.056 E49.2121
G1 X13.855 Y213.228 E49.28149
G1 X13.809 Y213.064 E49.29509
G1 X13.598 Y212.192 E49.3667
G1 X13.565 Y212.031 E49.37982
G1 X13.418 Y211.141 E49.45183
G1 X13.396 Y210.968 E49.46575
G1 X13.313 Y210.07 E49.53774
G1 X13.306 Y209.931 E49.54885
G1 X13.285 Y209.2 E49.60722
G1 X13.285 Y153.032 E54.0908
G1 X13.243 Y152.364 E54.14422
G1 X13.114 Y151.692 E54.19885
G1 X12.898 Y151.037 E54.2539
G1 X12.709 Y150.569 E54.29419
G1 X12.652 Y150.409 E54.30775
G1 X12.376 Y149.55 E54.37977
G1 X12.33 Y149.386 E54.39337
G1 X12.119 Y148.514 E54.46498
G1 X12.086 Y148.353 E54.4781
G1 X11.939 Y147.463 E54.55011
G1 X11.917 Y147.291 E54.56395
G1 X11.834 Y146.392 E54.63602
G1 X11.827 Y146.255 E54.64697
G1 X11.806 Y145.522 E54.7055
G1 X11.806 Y91.122 E59.04794
G1 X11.764 Y90.454 E59.10137
G1 X11.635 Y89.783 E59.15591
G1 X11.422 Y89.134 E59.21044
G1 X11.13 Y88.517 E59.26493
G1 X10.765 Y87.946 E59.31902
G1 X10.501 Y87.615 E59.35282
G1 X10.391 Y87.487 E59.36629
G1 X9.847 Y86.808 E59.43574
G1 X9.743 Y86.669 E59.4496
G1 X9.251 Y85.954 E59.51888
G1 X9.134 Y85.77 E59.53629
G1 X8.691 Y85.014 E59.60623
G1 X8.614 Y84.872 E59.61913
G1 X8.205 Y84.04 E59.69313
G1 X8.155 Y83.927 E59.703
G1 X7.807 Y83.066 E59.77713
G1 X7.75 Y82.905 E59.79076
G1 X7.478 Y82.057 E59.86185
G1 X7.432 Y81.893 E59.87544
G1 X7.221 Y81.021 E59.94706
G1 X7.188 Y80.86 E59.96018
G1 X7.041 Y79.97 E60.03218
G1 X7.019 Y79.798 E60.04603
G1 X6.936 Y78.899 E60.11809
G1 X6.929 Y78.762 E60.12904
G1 X6.908 Y78.029 E60.18758
G1 X6.908 Y49.277 E62.48269
G1 X6.944 Y48.271 E62.56304
G1 X6.954 Y48.136 E62.57385
G1 X7.056 Y47.219 E62.6475
G1 X7.081 Y47.044 E62.66161
G1 X7.243 Y46.166 E62.73288
G1 X7.273 Y46.032 E62.74384
G1 X7.504 Y45.147 E62.81685
G1 X7.556 Y44.975 E62.83119
G1 X7.842 Y44.133 E62.90218
G1 X7.906 Y43.967 E62.91638
G1 X8.246 Y43.164 E62.98599
G1 X8.534 Y42.548 E63.04027
G1 X8.525 Y42.543 E63.04109
G1 X8.604 Y42.363 E63.05678
G1 X8.796 Y41.708 E63.11127
G1 X8.905 Y41.034 E63.16577
G1 X8.928 Y40.351 E63.22032
G1 X8.864 Y39.671 E63.27484
G1 X8.715 Y39.008 E63.32908
G1 X8.697 Y38.957 E63.3334
G1 X8.703 Y38.954 E63.33393
G1 X8.49 Y38.36 E63.38431
G1 X8.214 Y37.5 E63.4564
G1 X8.168 Y37.336 E63.47
G1 X7.957 Y36.464 E63.54162
G1 X7.924 Y36.303 E63.55473
G1 X7.777 Y35.413 E63.62674
G1 X7.755 Y35.241 E63.64058
G1 X7.672 Y34.342 E63.71265
G1 X7.665 Y34.205 E63.7236
G1 X7.644 Y33.472 E63.78214
G1 X7.644 Y30.72 E64.00181
G1 X7.68 Y29.714 E64.08217
G1 X7.69 Y29.579 E64.09297
G1 X7.792 Y28.662 E64.16662
G1 X7.817 Y28.487 E64.18073
G1 X7.979 Y27.609 E64.252
G1 X8.009 Y27.475 E64.26296
G1 X8.24 Y26.59 E64.33598
G1 X8.292 Y26.418 E64.35032
G1 X8.578 Y25.576 E64.4213
G1 X8.642 Y25.41 E64.4355
G1 X8.983 Y24.607 E64.50514
G1 X9.064 Y24.432 E64.52054
G1 X9.479 Y23.624 E64.59304
G1 X9.546 Y23.507 E64.60381
G1 X10.02 Y22.728 E64.6766
G1 X10.12 Y22.577 E64.69105
G1 X10.631 Y21.863 E64.76114
G1 X10.744 Y21.715 E64.776
G1 X11.321 Y21.023 E64.84793
G1 X11.417 Y20.915 E64.85946
G1 X11.899 Y20.403 E64.91559
G1 X12.056 Y20.247 E64.93326
G1 X12.76 Y19.594 E65.00991
G1 X12.891 Y19.482 E65.02367
G1 X13.582 Y18.928 E65.09436
G1 X13.721 Y18.824 E65.10822
G0 F7200 X14.4 Y18.356
G1 F1012.5 X14.4 Y214.771 E80.78691
G0 F7200 X16 Y217.665
G1 F1012.5 X16 Y17.458 E96.7683
G0 F7200 X17.6 Y16.794
G1 F1012.5 X17.6 Y219.562 E112.95412
G0 F7200 X19.2 Y220.959
G1 F1012.5 X19.2 Y16.342 E129.28754
G0 F7200 X20.8 Y16.08
G1 F1012.5 X20.8 Y222.013 E145.726
G0 F7200 X22.4 Y222.789
G1 F1012.5 X22.4 Y15.989 E162.23367
G0 F7200 X24 Y15.989
G1 F1012.5 X24 Y223.35 E178.78612
G0 F7200 X25.6 Y223.71
G1 F1012.5 X25.6 Y15.989 E195.36731
G0 F7200 X27.2 Y15.989
G1 F1012.5 X27.2 Y223.887 E211.96263
G0 F7200 X28.8 Y223.916
G1 F1012.5 X28.8 Y15.989 E228.56026
G0 F7200 X30.4 Y15.989
G1 F1012.5 X30.4 Y223.916 E245.15789
G0 F7200 X32 Y223.916
G1 F1012.5 X32 Y15.989 E261.75552
G0 F7200 X33.6 Y15.989
G1 F1012.5 X33.6 Y223.916 E278.35315
G0 F7200 X35.2 Y223.916
G1 F1012.5 X35.2 Y15.989 E294.95079
G0 F7200 X36.8 Y15.989
G1 F1012.5 X36.8 Y223.916 E311.54842
G0 F7200 X38.4 Y223.916
G1 F1012.5 X38.4 Y15.989 E328.14605
G0 F7200 X40 Y15.989
G1 F1012.5 X40 Y223.916 E344.74368
G0 F7200 X41.6 Y223.916
G1 F1012.5 X41.6 Y15.989 E361.34132
G0 F7200 X43.2 Y15.989
G1 F1012.5 X43.2 Y223.916 E377.93895
G0 F7200 X44.8 Y223.916
G1 F1012.5 X44.8 Y15.989 E394.53658
G0 F7200 X46.4 Y15.989
G1 F1012.5 X46.4 Y223.916 E411.13421
G0 F7200 X48 Y223.916
G1 F1012.5 X48 Y15.989 E427.73184
G0 F7200 X49.6 Y15.989
G1 F1012.5 X49.6 Y223.916 E444.32948
G0 F7200 X51.2 Y223.916
G1 F1012.5 X51.2 Y15.989 E460.92711
G0 F7200 X52.8 Y15.989
G1 F1012.5 X52.8 Y223.916 E477.52474
G0 F7200 X54.4 Y223.916
G1 F1012.5 X54.4 Y15.989 E494.12237
G0 F7200 X56 Y15.989
G1 F1012.5 X56 Y223.916 E510.72001
G0 F7200 X57.6 Y223.892
G1 F1012.5 X57.6 Y15.989 E527.31572
G0 F7200 X59.2 Y15.989
G1 F1012.5 X59.2 Y223.703 E543.89635
G0 F7200 X60.8 Y223.346
G1 F1012.5 X60.8 Y15.989 E560.44848
G0 F7200 X62.4 Y15.989
G1 F1012.5 X62.4 Y223.044 E576.97651
G0 F7200 X64 Y223.209
G1 F1012.5 X64 Y15.989 E593.51771
G0 F7200 X65.6 Y15.833
G1 F1012.5 X65.6 Y223.781 E610.11701
G0 F7200 X67.2 Y224.238
G1 F1012.5 X67.2 Y15.515 E626.77819
G0 F7200 X68.8 Y15.198
G1 F1012.5 X68.8 Y224.491 E643.48486
G0 F7200 X70.4 Y224.582
G1 F1012.5 X70.4 Y14.881 E660.2241
G0 F7200 X72 Y14.564
G1 F1012.5 X72 Y224.582 E676.98865
G0 F7200 X73.6 Y224.582
G1 F1012.5 X73.6 Y14.246 E693.77857
G0 F7200 X75.2 Y13.929
G1 F1012.5 X75.2 Y224.582 E710.59381
G0 F7200 X76.8 Y224.582
G1 F1012.5 X76.8 Y13.612 E727.43435
G0 F7200 X78.4 Y13.295
G1 F1012.5 X78.4 Y224.582 E744.30019
