;FLAVOR:Marlin
;TIME:23013
;Filament used: 17.5613m
;Layer height: 0.2
;MINX:31.336
;MINY:43.086
;MINZ:0.24
;MAXX:170.162
;MAXY:214.486
;MAXZ:15.09
;Generated with Creality Slicer 4.8.2-218
M140 S60
M105
M190 S60
M104 S205
M105
M109 S205
M82 ;absolute extrusion mode

G28 ;Home

G92 E0 ;Reset Extruder
G1 Z2.0 F3000 ;Move Z Axis up
G1 X10.1 Y20 Z0.28 F5000.0 ;Move to start position
G1 X10.1 Y200.0 Z0.28 F1500.0 E15 ;Draw the first line
G1 X10.4 Y200.0 Z0.28 F5000.0 ;Move to side a little
G1 X10.4 Y20 Z0.28 F1500.0 E30 ;Draw the second line
G92 E0 ;Reset Extruder
G1 Z2.0 F3000 ;Move Z Axis up

G92 E0
G92 E0
G1 F2700 E-5
;LAYER_COUNT:70
;LAYER:-6
M107
G0 F7200 X66.387 Y50.128 Z0.24
;TYPE:SUPPORT-INTERFACE
G1 F2700 E0
G1 F1012.5 X66.5 Y49.98 E0.01486
G1 X67.077 Y49.288 E0.08679
G1 X67.173 Y49.18 E0.09832
G1 X67.655 Y48.668 E0.15445
G1 X67.812 Y48.512 E0.17212
G1 X68.508 Y47.866 E0.24792
G1 X68.647 Y47.747 E0.26253
G1 X69.345 Y47.187 E0.33396
G1 X69.477 Y47.089 E0.34708
G1 X70.192 Y46.597 E0.41636
G1 X70.376 Y46.48 E0.43377
G1 X71.132 Y46.037 E0.50371
G1 X71.274 Y45.96 E0.51661
G1 X72.106 Y45.551 E0.59061
G1 X72.219 Y45.501 E0.60048
G1 X73.074 Y45.156 E0.67407
G1 X73.241 Y45.096 E0.68824
G1 X74.08 Y44.827 E0.75857
G1 X74.246 Y44.78 E0.77234
G1 X75.116 Y44.569 E0.8438
G1 X75.278 Y44.536 E0.857
G1 X76.171 Y44.388 E0.92925
G1 X76.348 Y44.365 E0.9435
G1 X77.242 Y44.282 E1.01517
G1 X77.384 Y44.275 E1.02652
G1 X78.125 Y44.254 E1.08569
G1 X106.719 Y44.254 E3.36819
G1 X107.191 Y44.232 E3.40591
G1 X107.761 Y44.18 E3.4516
G1 X107.918 Y44.171 E3.46415
G1 X108.655 Y44.15 E3.523
G1 X154.416 Y44.151 E7.17584
G1 X155.417 Y44.187 E7.2558
G1 X155.54 Y44.196 E7.26564
G1 X156.457 Y44.298 E7.3393
G1 X156.632 Y44.323 E7.35341
G1 X157.521 Y44.487 E7.42557
G1 X157.644 Y44.515 E7.43564
G1 X158.538 Y44.749 E7.5094
G1 X158.701 Y44.798 E7.52299
G1 X159.543 Y45.084 E7.59397
G1 X159.709 Y45.148 E7.60818
G1 X160.512 Y45.489 E7.67781
G1 X160.701 Y45.577 E7.69446
G1 X161.495 Y45.985 E7.76572
G1 X161.612 Y46.052 E7.77648
G1 X162.391 Y46.526 E7.84927
G1 X162.542 Y46.626 E7.86372
G1 X163.264 Y47.142 E7.93456
G1 X163.391 Y47.239 E7.94732
G1 X164.097 Y47.828 E8.02071
G1 X164.198 Y47.917 E8.03146
G1 X164.716 Y48.405 E8.08827
G1 X164.835 Y48.524 E8.1017
G1 X165.518 Y49.258 E8.18173
G1 X165.637 Y49.397 E8.19634
G1 X166.191 Y50.088 E8.26704
G1 X166.295 Y50.227 E8.2809
G1 X166.787 Y50.942 E8.35018
G1 X166.904 Y51.126 E8.36758
G1 X167.347 Y51.882 E8.43753
G1 X167.424 Y52.024 E8.45042
G1 X167.827 Y52.843 E8.52328
G1 X167.883 Y52.969 E8.53429
G1 X168.225 Y53.814 E8.60706
G1 X168.284 Y53.979 E8.62104
G1 X168.556 Y54.826 E8.69206
G1 X168.602 Y54.988 E8.7055
G1 X168.814 Y55.862 E8.77729
G1 X168.847 Y56.02 E8.79017
G1 X168.995 Y56.912 E8.86235
G1 X169.019 Y57.098 E8.87732
G1 X169.101 Y57.982 E8.94819
G1 X169.109 Y58.134 E8.96034
G1 X169.13 Y58.867 E9.01887
G1 X169.13 Y171.119 E17.97931
G1 X169.094 Y172.125 E18.05967
G1 X169.084 Y172.26 E18.07047
G1 X168.982 Y173.177 E18.14412
G1 X168.957 Y173.352 E18.15824
G1 X168.795 Y174.23 E18.2295
G1 X168.765 Y174.364 E18.24047
G1 X168.534 Y175.249 E18.31348
G1 X168.482 Y175.421 E18.32782
G1 X168.196 Y176.263 E18.3988
G1 X168.132 Y176.429 E18.41301
G1 X167.791 Y177.232 E18.48264
G1 X167.71 Y177.407 E18.49804
G1 X167.295 Y178.215 E18.57055
G1 X167.228 Y178.332 E18.58131
G1 X166.754 Y179.111 E18.6541
G1 X166.654 Y179.262 E18.66855
G1 X166.143 Y179.976 E18.73864
G1 X166.03 Y180.124 E18.75351
G1 X165.453 Y180.816 E18.82543
G1 X165.357 Y180.924 E18.83696
G1 X164.875 Y181.436 E18.89309
G1 X164.718 Y181.592 E18.91076
G1 X164.022 Y182.238 E18.98656
G1 X163.883 Y182.357 E19.00117
G1 X163.192 Y182.911 E19.07186
G1 X163.053 Y183.015 E19.08572
G1 X162.338 Y183.507 E19.155
G1 X162.154 Y183.624 E19.17241
G1 X161.398 Y184.067 E19.24235
G1 X161.256 Y184.144 E19.25525
G1 X160.428 Y184.551 E19.3289
G1 X160.311 Y184.603 E19.33912
G1 X159.456 Y184.948 E19.41271
G1 X159.293 Y185.006 E19.42652
G1 X158.45 Y185.277 E19.49721
G1 X158.286 Y185.323 E19.5108
G1 X157.414 Y185.535 E19.58244
G1 X157.252 Y185.568 E19.59563
G1 X156.359 Y185.716 E19.66789
G1 X156.182 Y185.739 E19.68214
G1 X155.288 Y185.822 E19.75381
G1 X155.146 Y185.829 E19.76516
G1 X154.405 Y185.85 E19.82433
G1 X126.987 Y185.85 E22.01295
G1 X126.319 Y185.892 E22.06638
G1 X125.648 Y186.021 E22.12092
G1 X124.999 Y186.234 E22.17545
G1 X124.382 Y186.526 E22.22994
G1 X123.807 Y186.894 E22.28443
G1 X123.283 Y187.332 E22.33895
G1 X122.819 Y187.832 E22.3934
G1 X122.42 Y188.388 E22.44803
G1 X122.096 Y188.988 E22.50246
G1 X121.85 Y189.624 E22.55689
G1 X121.684 Y190.293 E22.61191
G1 X121.6 Y191.232 E22.68717
G1 X121.6 Y198.723 E23.28513
G1 X121.564 Y199.729 E23.36549
G1 X121.554 Y199.864 E23.37629
G1 X121.452 Y200.781 E23.44994
G1 X121.427 Y200.956 E23.46405
G1 X121.265 Y201.834 E23.53532
G1 X121.235 Y201.968 E23.54628
G1 X121.004 Y202.853 E23.61929
G1 X120.952 Y203.025 E23.63364
G1 X120.666 Y203.867 E23.70462
G1 X120.602 Y204.033 E23.71882
G1 X120.261 Y204.836 E23.78846
G1 X120.18 Y205.011 E23.80386
G1 X119.776 Y205.797 E23.8744
G1 X119.698 Y205.936 E23.88712
G1 X119.224 Y206.715 E23.95991
G1 X119.124 Y206.866 E23.97437
G1 X118.613 Y207.58 E24.04446
G1 X118.5 Y207.728 E24.05932
G1 X117.923 Y208.42 E24.13124
G1 X117.827 Y208.528 E24.14278
G1 X117.345 Y209.04 E24.19891
G1 X117.188 Y209.196 E24.21658
G1 X116.503 Y209.832 E24.29119
G1 X116.355 Y209.959 E24.30676
G1 X115.662 Y210.515 E24.37768
G1 X115.523 Y210.619 E24.39154
G1 X114.808 Y211.111 E24.46082
G1 X114.624 Y211.228 E24.47822
G1 X113.868 Y211.671 E24.54817
G1 X113.726 Y211.748 E24.56106
G1 X112.898 Y212.155 E24.63471
G1 X112.781 Y212.207 E24.64493
G1 X111.926 Y212.552 E24.71853
G1 X111.763 Y212.61 E24.73234
G1 X110.92 Y212.881 E24.80302
G1 X110.756 Y212.927 E24.81662
G1 X109.884 Y213.139 E24.88825
G1 X109.722 Y213.172 E24.90145
G1 X108.829 Y213.32 E24.9737
G1 X108.652 Y213.343 E24.98795
G1 X107.758 Y213.426 E25.05962
G1 X107.616 Y213.433 E25.07097
G1 X106.875 Y213.454 E25.13014
G1 X47.114 Y213.453 E29.90053
G1 X46.113 Y213.417 E29.98048
G1 X45.99 Y213.408 E29.99033
G1 X45.073 Y213.306 E30.06398
G1 X44.898 Y213.281 E30.07809
G1 X44.009 Y213.117 E30.15025
G1 X43.886 Y213.089 E30.16032
G1 X42.992 Y212.855 E30.23409
G1 X42.829 Y212.806 E30.24767
G1 X41.987 Y212.52 E30.31866
G1 X41.821 Y212.456 E30.33286
G1 X41.018 Y212.115 E30.4025
G1 X40.829 Y212.027 E30.41914
G1 X40.035 Y211.619 E30.4904
G1 X39.918 Y211.552 E30.50116
G1 X39.139 Y211.078 E30.57395
G1 X38.988 Y210.978 E30.58841
G1 X38.274 Y210.467 E30.65849
G1 X38.126 Y210.354 E30.67336
G1 X37.434 Y209.777 E30.74528
G1 X37.326 Y209.681 E30.75681
G1 X36.814 Y209.199 E30.81294
G1 X36.654 Y209.038 E30.83106
G1 X36.01 Y208.344 E30.90664
G1 X35.893 Y208.207 E30.92102
G1 X35.343 Y207.521 E30.99121
G1 X35.227 Y207.365 E31.00672
G1 X34.743 Y206.662 E31.07485
G1 X34.626 Y206.478 E31.09226
G1 X34.183 Y205.722 E31.1622
G1 X34.106 Y205.58 E31.1751
G1 X33.697 Y204.748 E31.2491
G1 X33.647 Y204.635 E31.25897
G1 X33.298 Y203.771 E31.33335
G1 X33.242 Y203.613 E31.34673
G1 X32.97 Y202.765 E31.41782
G1 X32.928 Y202.615 E31.43025
G1 X32.712 Y201.727 E31.5032
G1 X32.683 Y201.584 E31.51485
G1 X32.533 Y200.678 E31.58816
G1 X32.511 Y200.506 E31.602
G1 X32.428 Y199.607 E31.67406
G1 X32.421 Y199.47 E31.68501
G1 X32.4 Y198.737 E31.74355
G1 X32.4 Y103.985 E39.30706
G1 X32.436 Y102.979 E39.38742
G1 X32.446 Y102.844 E39.39822
G1 X32.548 Y101.927 E39.47188
G1 X32.573 Y101.752 E39.48599
G1 X32.735 Y100.874 E39.55725
G1 X32.765 Y100.74 E39.56822
G1 X32.996 Y99.855 E39.64123
G1 X33.048 Y99.683 E39.65557
G1 X33.334 Y98.841 E39.72655
G1 X33.398 Y98.675 E39.74076
G1 X33.739 Y97.872 E39.8104
G1 X33.82 Y97.697 E39.82579
G1 X34.235 Y96.889 E39.8983
G1 X34.302 Y96.772 E39.90906
G1 X34.776 Y95.993 E39.98185
G1 X34.876 Y95.842 E39.99631
G1 X35.387 Y95.128 E40.06639
G1 X35.5 Y94.98 E40.08126
G1 X36.077 Y94.288 E40.15318
G1 X36.173 Y94.18 E40.16471
G1 X36.655 Y93.668 E40.22084
G1 X36.812 Y93.512 E40.23851
G1 X37.508 Y92.866 E40.31431
G1 X37.647 Y92.747 E40.32892
G1 X38.338 Y92.193 E40.39962
G1 X38.477 Y92.089 E40.41347
G1 X39.192 Y91.597 E40.48275
G1 X39.376 Y91.48 E40.50016
G1 X40.132 Y91.037 E40.5701
G1 X40.274 Y90.96 E40.583
G1 X41.106 Y90.551 E40.657
G1 X41.219 Y90.501 E40.66687
G1 X42.074 Y90.156 E40.74046
G1 X42.241 Y90.096 E40.75463
G1 X43.08 Y89.827 E40.82496
G1 X43.244 Y89.781 E40.83856
G1 X44.116 Y89.569 E40.91019
G1 X44.278 Y89.536 E40.92339
G1 X45.171 Y89.388 E40.99564
G1 X45.348 Y89.365 E41.00989
G1 X46.242 Y89.282 E41.08156
G1 X46.384 Y89.275 E41.09291
G1 X47.125 Y89.254 E41.15208
G1 X58.013 Y89.254 E42.02121
G1 X58.681 Y89.212 E42.07464
G1 X59.352 Y89.083 E42.12918
G1 X60.001 Y88.87 E42.18371
G1 X60.618 Y88.578 E42.23819
G1 X61.193 Y88.21 E42.29269
G1 X61.717 Y87.772 E42.3472
G1 X62.181 Y87.272 E42.40165
G1 X62.58 Y86.716 E42.45628
G1 X62.904 Y86.116 E42.51071
G1 X63.15 Y85.48 E42.56515
G1 X63.316 Y84.811 E42.62017
G1 X63.4 Y83.872 E42.69542
G1 X63.4 Y58.985 E44.68201
G1 X63.436 Y57.979 E44.76237
G1 X63.446 Y57.844 E44.77317
G1 X63.548 Y56.927 E44.84682
G1 X63.573 Y56.752 E44.86093
G1 X63.735 Y55.874 E44.9322
G1 X63.765 Y55.74 E44.94316
G1 X63.996 Y54.855 E45.01618
G1 X64.048 Y54.683 E45.03052
G1 X64.334 Y53.841 E45.1015
G1 X64.398 Y53.675 E45.1157
G1 X64.739 Y52.872 E45.18534
G1 X64.82 Y52.697 E45.20074
G1 X65.235 Y51.889 E45.27324
G1 X65.302 Y51.772 E45.28401
G1 X65.776 Y50.993 E45.3568
G1 X65.876 Y50.842 E45.37125
G1 X66.387 Y50.128 E45.44134
G0 F7200 X67.2 Y49.151
G1 F1012.5 X67.2 Y213.453 E58.55664
G0 F7200 X65.6 Y213.453
G1 F1012.5 X65.6 Y51.282 E71.50183
G0 F7200 X64 Y54.841
G1 F1012.5 X64 Y213.453 E84.16292
G0 F7200 X62.4 Y213.453
G1 F1012.5 X62.4 Y86.966 E94.25966
G0 F7200 X60.8 Y88.461
G1 F1012.5 X60.8 Y213.453 E104.23706
G0 F7200 X59.2 Y213.453
G1 F1012.5 X59.2 Y89.112 E114.1625
G0 F7200 X57.6 Y89.254
G1 F1012.5 X57.6 Y213.453 E124.0766
G0 F7200 X56 Y213.453
G1 F1012.5 X56 Y89.254 E133.9907
G0 F7200 X54.4 Y89.254
G1 F1012.5 X54.4 Y213.453 E143.9048
G0 F7200 X52.8 Y213.453
G1 F1012.5 X52.8 Y89.254 E153.81891
G0 F7200 X51.2 Y89.254
G1 F1012.5 X51.2 Y213.453 E163.73301
G0 F7200 X49.6 Y213.453
G1 F1012.5 X49.6 Y89.254 E173.64711
G0 F7200 X48 Y89.254
G1 F1012.5 X48 Y213.453 E183.56121
G0 F7200 X46.4 Y213.427
G1 F1012.5 X46.4 Y89.274 E193.47164
G0 F7200 X44.8 Y89.449
G1 F1012.5 X44.8 Y213.262 E203.35493
G0 F7200 X43.2 Y212.909
G1 F1012.5 X43.2 Y89.793 E213.18258
G0 F7200 X41.6 Y90.347
G1 F1012.5 X41.6 Y212.362 E222.92234
G0 F7200 X40 Y211.598
G1 F1012.5 X40 Y91.114 E232.5399
G0 F7200 X38.4 Y92.146
G1 F1012.5 X38.4 Y210.557 E241.99198
G0 F7200 X36.8 Y209.184
G1 F1012.5 X36.8 Y93.523 E251.22454
G0 F7200 X35.2 Y95.389
G1 F1012.5 X35.2 Y207.325 E260.15975
G0 F7200 X33.6 Y204.518
G1 F1012.5 X33.6 Y98.199 E268.64659
G1 F2700 E263.64659
G0 F7200 X32.769 Y97.433
G0 X33.387 Y96.228
G0 X34.534 Y94.49
G0 X65.662 Y49.323
G0 X66.806 Y48.044
G0 X67.806 Y47.066
G0 X68.8 Y47.624
G1 F2700 E268.64659
G1 F1012.5 X68.8 Y213.453 E281.88378
G0 F7200 X70.4 Y213.453
G1 F1012.5 X70.4 Y46.465 E295.21349
G0 F7200 X72 Y45.603
G1 F1012.5 X72 Y213.453 E308.612
G0 F7200 X73.6 Y213.453
G1 F1012.5 X73.6 Y44.98 E322.06024
G0 F7200 X75.2 Y44.551
G1 F1012.5 X75.2 Y213.453 E335.54273
G0 F7200 X76.8 Y213.453
G1 F1012.5 X76.8 Y44.323 E349.04342
G0 F7200 X78.4 Y44.254
G1 F1012.5 X78.4 Y213.453 E362.54961
G0 F7200 X80 Y213.453
G1 F1012.5 X80 Y44.254 E376.05581
G0 F7200 X81.6 Y44.254
G1 F1012.5 X81.6 Y213.453 E389.56201
G0 F7200 X83.2 Y213.453
G1 F1012.5 X83.2 Y44.254 E403.0682
G0 F7200 X84.8 Y44.254
G1 F1012.5 X84.8 Y213.453 E416.5744
G0 F7200 X86.4 Y213.453
G1 F1012.5 X86.4 Y44.254 E430.08059
G0 F7200 X88 Y44.254
G1 F1012.5 X88 Y213.453 E443.58679
G0 F7200 X89.6 Y213.453
G1 F1012.5 X89.6 Y44.254 E457.09299
G0 F7200 X91.2 Y44.254
G1 F1012.5 X91.2 Y213.453 E470.59918
G0 F7200 X92.8 Y213.453
G1 F1012.5 X92.8 Y44.254 E484.10538
G0 F7200 X94.4 Y44.254
G1 F1012.5 X94.4 Y213.453 E497.61157
G0 F7200 X96 Y213.453
G1 F1012.5 X96 Y44.254 E511.11777
G0 F7200 X97.6 Y44.254
G1 F1012.5 X97.6 Y213.453 E524.62396
G0 F7200 X99.2 Y213.453
G1 F1012.5 X99.2 Y44.254 E538.13016
G0 F7200 X100.8 Y44.254
G1 F1012.5 X100.8 Y213.453 E551.63636
G0 F7200 X102.4 Y213.453
G1 F1012.5 X102.4 Y44.254 E565.14255
G0 F7200 X104 Y44.254
G1 F1012.5 X104 Y213.453 E578.64875
G0 F7200 X105.6 Y213.453
G1 F1012.5 X105.6 Y44.254 E592.15494
G0 F7200 X107.2 Y44.231
G1 F1012.5 X107.2 Y213.445 E605.66234
G0 F7200 X108.8 Y213.324
G1 F1012.5 X108.8 Y44.151 E619.16646
G0 F7200 X110.4 Y44.151
G1 F1012.5 X110.4 Y213.014 E632.64583
G0 F7200 X112 Y212.523
G1 F1012.5 X112 Y44.151 E646.08601
G0 F7200 X113.6 Y44.151
G1 F1012.5 X113.6 Y211.81 E659.46928
G0 F7200 X115.2 Y210.842
G1 F1012.5 X115.2 Y44.151 E672.77528
G0 F7200 X116.8 Y44.151
G1 F1012.5 X116.8 Y209.557 E685.9787
G0 F7200 X118.4 Y207.848
G1 F1012.5 X118.4 Y44.151 E699.0457
G0 F7200 X120 Y44.151
G1 F1012.5 X120 Y205.362 E711.91426
G1 F2700 E706.91426
G0 F7200 X121.132 Y205.486
G0 X121.669 Y204.222
G0 X122.268 Y202.225
G0 X122.509 Y200.909
G0 X122.665 Y198.761
G0 X121.6 Y198.723
G1 F2700 E711.91426
G1 F1012.5 X121.6 Y44.151 E724.25286
G0 F7200 X123.2 Y44.151
G1 F1012.5 X123.2 Y187.422 E735.68938
G0 F7200 X124.8 Y186.329
G1 F1012.5 X124.8 Y44.151 E747.03864
G0 F7200 X126.4 Y44.151
G1 F1012.5 X126.4 Y185.887 E758.35262
G0 F7200 X128 Y185.85
G1 F1012.5 X128 Y44.151 E769.66365
G0 F7200 X129.6 Y44.151
G1 F1012.5 X129.6 Y185.85 E780.97467
G0 F7200 X131.2 Y185.85
G1 F1012.5 X131.2 Y44.151 E792.2857
G0 F7200 X132.8 Y44.151
G1 F1012.5 X132.8 Y185.85 E803.59673
G0 F7200 X134.4 Y185.85
G1 F1012.5 X134.4 Y44.151 E814.90775
G0 F7200 X136 Y44.151
G1 F1012.5 X136 Y185.85 E826.21878
G0 F7200 X137.6 Y185.85
G1 F1012.5 X137.6 Y44.151 E837.52981
G0 F7200 X139.2 Y44.151
G1 F1012.5 X139.2 Y185.85 E848.84083
G0 F7200 X140.8 Y185.85
G1 F1012.5 X140.8 Y44.151 E860.15186
G0 F7200 X142.4 Y44.151
G1 F1012.5 X142.4 Y185.85 E871.46289
G0 F7200 X144 Y185.85
G1 F1012.5 X144 Y44.151 E882.77391
G0 F7200 X145.6 Y44.151
G1 F1012.5 X145.6 Y185.85 E894.08494
G0 F7200 X147.2 Y185.85
G1 F1012.5 X147.2 Y44.151 E905.39597
G0 F7200 X148.8 Y44.151
G1 F1012.5 X148.8 Y185.85 E916.707
G0 F7200 X150.4 Y185.85
G1 F1012.5 X150.4 Y44.151 E928.01802
G0 F7200 X152 Y44.151
G1 F1012.5 X152 Y185.85 E939.32905
G0 F7200 X153.6 Y185.85
G1 F1012.5 X153.6 Y44.151 E950.64008
G0 F7200 X155.2 Y44.18
G1 F1012.5 X155.2 Y185.827 E961.94695
G0 F7200 X156.8 Y185.643
G1 F1012.5 X156.8 Y44.354 E973.22525
G0 F7200 X158.4 Y44.713
G1 F1012.5 X158.4 Y185.292 E984.44687
G0 F7200 X160 Y184.729
G1 F1012.5 X160 Y45.272 E995.57894
G0 F7200 X161.6 Y46.046
G1 F1012.5 X161.6 Y183.949 E1006.58695
G0 F7200 X163.2 Y182.905
G1 F1012.5 X163.2 Y47.097 E1017.42773
G0 F7200 X164.8 Y48.489
G1 F1012.5 X164.8 Y181.511 E1028.04612
G0 F7200 X166.4 Y179.617
G1 F1012.5 X166.4 Y50.38 E1038.36238
G0 F7200 X168 Y53.259
G1 F1012.5 X168 Y176.74 E1048.21917
G1 F2700 E1043.21917
G0 F300 X168 Y176.74 Z0.54
G0 F7200 X169.117 Y176.833
G0 X169.557 Y175.543
G0 X170.009 Y173.516
G0 X170.156 Y172.19
G0 X170.162 Y57.911
G0 X169.896 Y55.834
G0 X169.577 Y54.525
G0 X168.865 Y52.56
G0 X168.277 Y51.365
G0 X167.17 Y49.623
G0 X166.294 Y50.227
;TIME_ELAPSED:796.134632
;LAYER:-5
;TYPE:SUPPORT
G1 F2700 E1048.21917
G1 F1012.5 X166.19 Y50.087 E1048.23657
G1 X165.636 Y49.396 E1048.32494
G1 X165.517 Y49.257 E1048.3432
G1 X164.834 Y48.523 E1048.44324
G1 X164.715 Y48.404 E1048.46003
G1 X164.197 Y47.916 E1048.53104
G1 X164.096 Y47.827 E1048.54447
G1 X163.389 Y47.238 E1048.63629
G1 X163.263 Y47.142 E1048.6521
G1 X162.719 Y46.753 E1048.71883
G1 X166.518 Y50.553 E1049.25498
G1 X166.785 Y50.942 E1049.30206
G1 X166.903 Y51.125 E1049.32378
G1 X167.346 Y51.881 E1049.41121
G1 X167.423 Y52.023 E1049.42733
G1 X167.826 Y52.843 E1049.5185
G1 X167.881 Y52.968 E1049.53213
G1 X168.128 Y53.577 E1049.5977
G1 X159.694 Y45.143 E1050.78783
G1 X159.542 Y45.084 E1050.8041
G1 X158.7 Y44.798 E1050.89283
G1 X158.536 Y44.749 E1050.90991
G1 X157.655 Y44.518 E1051.00078
G1 X168.754 Y55.617 E1052.56697
G1 X168.813 Y55.861 E1052.59202
G1 X168.845 Y56.019 E1052.60811
G1 X168.994 Y56.912 E1052.69844
